X: 87
T: An Appeal to the Bear
C: Teton Sioux band 1911-1914
N: Derived from sioux087.krn
O: South Dakota, U.S.A.
N: Teton Sioux Music by Frances Densmore, 1918
Z: transcribed to **kern format by Craig Sapp
L: 1/8
M: 2/4
Q: 1/4=58
K: Gb clef=bass
%%linebreak <none>
E E E E [I:setbarnb 2]| 
B,4- | 
B,4 ]|:  
C B, C B, ||  
[M:3/4]A,6 | 
G,< G, G, G, E, E, | 
E,6 ||  
[M:2/4]B, A, B, A, ||  
[M:3/4]G,6 | 
A,< G, G, G, E, E, ||  
[M:2/4]E,4 | 
E,4 :|]  



